X: 21252
T: O GIN YE WERE DEAD GUDEMAN	
%R: reel, Scots measure
B: "Edinburgh Repository of Music" v.2 p.125 #2
F: http://digital.nls.uk/special-collections-of-printed-music/pageturner.cfm?id=87776133
Z: 2015 John Chambers <jc:trillian.mit.edu>
M: C|
L: 1/8
K: F
C/D/E |\
F2F2 c2F2 | A2G2 G2C>D | F2~F2 c2F2 | A2f2 c3f |\
defc ABcA | dcBA {A}G2FD | F2f2 c>dB>c | A2F2 F2 :|
|: c/d/e |\
fefg fgaf | {a}gfga agfd | cdfg fgag | fgfc ABcA |\
defc ABcA | fdcA {A}G2FD | F2f2 c>dB>c | A2F2 F2 :|
